X:306
T:Schottis fran Idre
R:polka 32 schottische
S:Old Swan Band
B:English Choice, Nick Barber, pub mally.com
M:2/2
L:1/8
Q:1/4=180
K:D
|:"D"D2FA d2d2|D2FA d2d2|
"A"efec A2Bc|"D"d2cB "A"AGFE|
"D"D2FA d2d2|D2FA d2d2|
"A"efec A2Bc|dedc "D"d4:|
:"D"a2aa "A"g2g2|"D"f2f2 "A"e4|
"Dm"=f2ag f2ed|"A"cded c2A2|
"D"a2aa "A"g2g2|"D"f2f2 "A"e4|
"Dm"=f2ag f2ed|"A"cdec "D"d4:|]

